X:81
T: Sipan
N: C1576D
O: China,Shandong, Rizhao
S: III, 395]
R: Xiaodiao, Shuluo]
M: 2/4
L: 1/16
K: E
B2BBcBce | B8 | B2FGB2GF | E8 |
c3Bc4 | e2cBG4 | B2FGB2GF | E8 |
B2FGB4 | cBceB3G | FGFEE2C4E2 | F2G2E2C2 | B,4
B,3C | E2F2E2C2 | B,6C2 | B,8

@@@ Tune index: 6636
